src/assets/icons/left-quote-icon.svg

<svg width="57" height="52" viewBox="0 0 57 52" fill="none" xmlns="http://www.w3.org/2000/svg">
<path fill-rule="evenodd" clip-rule="evenodd" d="M18.4936 1.0994C16.8506 1.72395 14.2865 3.09595 12.4311 4.34318C10.2112 5.8354 7.16119 8.6814 5.6423 10.678C2.91408 14.264 1.48685 17.9113 0.666743 23.3938C0.115187 27.0805 0.0759648 28.0165 0.0250759 38.7172C-0.0290352 50.0976 -0.0783686 49.3833 0.823409 50.2849C1.69352 51.1552 1.17874 51.1161 11.7772 51.1161C22.0135 51.1161 21.6552 51.1369 22.5009 50.4918C22.7169 50.3272 23.0285 49.9627 23.1936 49.6821L23.4936 49.1716L23.5237 39.4755L23.554 29.7794L23.3139 29.2213C23.032 28.5661 22.2583 27.8358 21.674 27.6735C21.4344 27.6071 19.4382 27.5615 16.7436 27.5612L12.2159 27.5605V26.8618C12.2159 25.2711 12.6694 22.5714 13.2372 20.7827C13.992 18.4047 15.1436 16.4874 16.8119 14.8315C18.1729 13.4805 19.7489 12.4076 21.9643 11.3236C23.5843 10.5311 23.8273 10.3344 24.2724 9.4554C24.3903 9.22262 24.4689 8.80773 24.4727 8.39762C24.4783 7.80395 24.4043 7.56284 23.8571 6.39162C21.7746 1.93484 21.6043 1.65207 20.7344 1.20829C20.0965 0.882844 19.1805 0.8384 18.4936 1.0994ZM51.3505 1.01796C50.7347 1.13162 47.8393 2.54851 46.2714 3.5034C41.5147 6.4004 37.8017 10.2816 35.629 14.628C34.0402 17.8061 33.2532 21.0165 32.699 26.5816C32.5516 28.0605 32.5094 30.2717 32.4696 38.6052C32.4146 50.1105 32.3649 49.3819 33.2679 50.2849C34.138 51.1551 33.6239 51.1161 44.2159 51.1161C54.54 51.1161 54.1781 51.1385 55.0176 50.4465C55.2379 50.2649 55.5475 49.8565 55.7059 49.5388L55.9936 48.9613L55.9912 39.3443C55.9887 29.9094 55.9844 29.7177 55.7624 29.2272C55.5023 28.6524 55.1055 28.2047 54.5492 27.8583C54.1693 27.6216 54.05 27.6147 49.3841 27.5605L44.6079 27.5049L44.6417 26.6161C44.7294 24.3202 45.2836 21.5878 46.0534 19.6576C46.8449 17.673 47.7927 16.2253 49.2312 14.8044C50.5403 13.5113 51.8769 12.5898 53.9749 11.5343C55.9861 10.5224 56.5482 10.0561 56.7759 9.21073C57.0453 8.21017 56.9034 7.70606 55.5773 4.9494C54.8372 3.41095 54.1804 2.19962 53.9271 1.90584C53.2835 1.15951 52.3417 0.834955 51.3505 1.01796Z" fill="#4CBECF"/>
</svg>

<?xml version="1.0" encoding="UTF-8"?>
<svg fill="none" viewBox="0 0 57 52" xmlns="http://www.w3.org/2000/svg">
<path d="m18.494 1.0994c-1.643 0.62455-4.2071 1.9966-6.0625 3.2438-2.2199 1.4922-5.2699 4.3382-6.7888 6.3348-2.7282 3.586-4.1554 7.2333-4.9756 12.716-0.55156 3.6867-0.59078 4.6227-0.64167 15.323-0.054111 11.38-0.10344 10.666 0.79833 11.568 0.87011 0.8703 0.35533 0.8312 10.954 0.8312 10.236 0 9.878 0.0208 10.724-0.6243 0.216-0.1646 0.5276-0.5291 0.6927-0.8097l0.3-0.5105 0.0301-9.6961 0.0303-9.6961-0.2401-0.5581c-0.2819-0.6552-1.0556-1.3855-1.6399-1.5478-0.2396-0.0664-2.2358-0.112-4.9304-0.1123l-4.5277-7e-4v-0.6987c0-1.5907 0.4535-4.2904 1.0213-6.0791 0.7548-2.378 1.9064-4.2953 3.5747-5.9512 1.361-1.351 2.937-2.4239 5.1524-3.5079 1.62-0.7925 1.863-0.9892 2.3081-1.8682 0.1179-0.23278 0.1965-0.64767 0.2003-1.0578 0.0056-0.59367-0.0684-0.83478-0.6156-2.006-2.0825-4.4568-2.2528-4.7396-3.1227-5.1833-0.6379-0.32545-1.5539-0.36989-2.2408-0.10889zm32.857-0.08144c-0.6158 0.11366-3.5112 1.5306-5.0791 2.4854-4.7567 2.897-8.4697 6.7782-10.642 11.125-1.5888 3.1781-2.3758 6.3885-2.93 11.954-0.1474 1.4789-0.1896 3.6901-0.2294 12.024-0.055 11.505-0.1047 10.777 0.7983 11.68 0.8701 0.8702 0.356 0.8312 10.948 0.8312 10.324 0 9.9622 0.0224 10.802-0.6696 0.2203-0.1816 0.5299-0.59 0.6883-0.9077l0.2877-0.5775-0.0024-9.617c-0.0025-9.4349-0.0068-9.6266-0.2288-10.117-0.2601-0.5748-0.6569-1.0225-1.2132-1.3689-0.3799-0.2367-0.4992-0.2436-5.1651-0.2978l-4.7762-0.0556 0.0338-0.8888c0.0877-2.2959 0.6419-5.0283 1.4117-6.9585 0.7915-1.9846 1.7393-3.4323 3.1778-4.8532 1.3091-1.2931 2.6457-2.2146 4.7437-3.2701 2.0112-1.0119 2.5733-1.4782 2.801-2.3236 0.2694-1.0006 0.1275-1.5047-1.1986-4.2613-0.7401-1.5384-1.3969-2.7498-1.6502-3.0436-0.6436-0.74633-1.5854-1.0709-2.5766-0.88788z" clip-rule="evenodd" fill="#4CBECF" fill-rule="evenodd"/>
</svg>
